src/icons/3x4.svg

<svg xmlns="http://www.w3.org/2000/svg" width="512" height="512" viewBox="0 0 512 512">
    <path d="M356.3 320.9H416v88.6h-59.7v-88.6zm-86.7 0h59.7v88.6h-59.7v-88.6zm-86.8 0h59.7v88.6h-59.7v-88.6zm-86.8 0h59.7v88.6H96v-88.6zm260.3-115.7H416v88.6h-59.7v-88.6zm-86.7 0h59.7v88.6h-59.7v-88.6zm-86.8 0h59.7v88.6h-59.7v-88.6zm-86.8 0h59.7v88.6H96v-88.6zM356.3 89.5H416v88.6h-59.7V89.5zm-86.7 0h59.7v88.6h-59.7V89.5zm-86.8 0h59.7v88.6h-59.7V89.5zm-86.8 0h59.7v88.6H96V89.5z"/>
</svg>

<?xml version="1.0" encoding="UTF-8"?>
<svg width="512px" height="512px" viewBox="0 0 512 512" version="1.1" xmlns="http://www.w3.org/2000/svg" xmlns:xlink="http://www.w3.org/1999/xlink">
    <!-- Generator: Sketch 62 (91390) - https://sketch.com -->
    <title>3x4</title>
    <desc>Created with Sketch.</desc>
    <g id="3x4" stroke="none" stroke-width="1" fill="none" fill-rule="evenodd">
        <path d="M356.3,320.9 L416,320.9 L416,409.5 L356.3,409.5 L356.3,320.9 Z M269.6,320.9 L329.3,320.9 L329.3,409.5 L269.6,409.5 L269.6,320.9 Z M182.8,320.9 L242.5,320.9 L242.5,409.5 L182.8,409.5 L182.8,320.9 Z M96,320.9 L155.7,320.9 L155.7,409.5 L96,409.5 L96,320.9 L96,320.9 Z M356.3,205.2 L416,205.2 L416,293.8 L356.3,293.8 L356.3,205.2 Z M269.6,205.2 L329.3,205.2 L329.3,293.8 L269.6,293.8 L269.6,205.2 Z M182.8,205.2 L242.5,205.2 L242.5,293.8 L182.8,293.8 L182.8,205.2 Z M96,205.2 L155.7,205.2 L155.7,293.8 L96,293.8 L96,205.2 L96,205.2 Z M356.3,89.5 L416,89.5 L416,178.1 L356.3,178.1 L356.3,89.5 Z M269.6,89.5 L329.3,89.5 L329.3,178.1 L269.6,178.1 L269.6,89.5 Z M182.8,89.5 L242.5,89.5 L242.5,178.1 L182.8,178.1 L182.8,89.5 Z M96,89.5 L155.7,89.5 L155.7,178.1 L96,178.1 L96,89.5 Z" id="Shape" fill="#000000" fill-rule="nonzero"></path>
    </g>
</svg>
